X: 1
T:Three Handed Reel
T:Fanny Frail
C:Trad.
A:Bromsberrow Heath, Gloucestershire
S:Dommett
B:Dommett, p. 4, 26, 43
N:originally entered by Rich Holmes, 1996 Sept.
M:4/4
L:1/8
K:D
L:1/8
I:speed 300
fd A2 fd A2|g2 f2  ec A2|g2 f2 e2 d2|edcB  AGFE|\
DF A2 EG B2|A2 d>d fd B2|A2 dc B2 E2|C2 F2 D4||
